components/ui/icons/src/main/assets/mozac_error_shred_file.svg

<svg viewBox="0 0 256 70" xmlns="http://www.w3.org/2000/svg" xmlns:xlink="http://www.w3.org/1999/xlink"><radialGradient id="a" cx="143.54" cy="81.07" gradientTransform="matrix(1 0 0 .7 0 24.46)" gradientUnits="userSpaceOnUse" r="146.71"><stop offset=".08" stop-color="#cdcdd4" stop-opacity="0"/><stop offset=".36" stop-color="#cdcdd4" stop-opacity=".02"/><stop offset=".65" stop-color="#cdcdd4" stop-opacity=".08"/><stop offset=".94" stop-color="#cdcdd4" stop-opacity=".18"/><stop offset="1" stop-color="#cdcdd4" stop-opacity=".2"/></radialGradient><linearGradient id="b" gradientUnits="userSpaceOnUse" x1="15.02" x2="70.79" y1="84.89" y2="29.12"><stop offset="0" stop-color="#ffd567"/><stop offset="1" stop-color="#fff361"/></linearGradient><linearGradient id="c" x1="18.75" x2="74.52" xlink:href="#b" y1="73.73" y2="17.96"/><linearGradient id="d" x1=".09" x2="55.86" xlink:href="#b" y1="96.83" y2="41.06"/><linearGradient id="e" x1="6.43" x2="62.2" xlink:href="#b" y1="77.84" y2="22.07"/><linearGradient id="f" x1="20.2" x2="75.97" xlink:href="#b" y1="58.66" y2="2.89"/><linearGradient id="g" x1="21.49" x2="77.26" xlink:href="#b" y1="98.33" y2="42.56"/><radialGradient id="h" cx="15.16" cy="-31.08" gradientUnits="userSpaceOnUse" r="110.94"><stop offset=".35" stop-color="#ffea80"/><stop offset="1" stop-color="#ffbd4f"/></radialGradient><linearGradient id="i" gradientUnits="userSpaceOnUse" x1="6.05" x2="57.88" y1="-29.94" y2="45.81"><stop offset=".35" stop-color="#ffd567"/><stop offset=".9" stop-color="#ffa436"/></linearGradient><linearGradient id="j" x1="12.83" x2="64.66" xlink:href="#i" y1="-34.59" y2="41.16"/><linearGradient id="k" x1="-4.9" x2="46.93" xlink:href="#i" y1="-22.45" y2="53.3"/><linearGradient id="l" x1=".69" x2="52.52" xlink:href="#i" y1="-26.28" y2="49.47"/><linearGradient id="m" x1="6.28" x2="58.11" xlink:href="#i" y1="-30.11" y2="45.64"/><linearGradient id="n" x1="16.05" x2="67.88" xlink:href="#i" y1="-36.79" y2="38.96"/><linearGradient id="o" x1="-1.6" x2="50.23" xlink:href="#i" y1="-24.71" y2="51.04"/><linearGradient id="p" x1="3.99" x2="55.82" xlink:href="#i" y1="-28.54" y2="47.21"/><linearGradient id="q" x1="6.24" x2="58.07" xlink:href="#i" y1="-30.07" y2="45.68"/><linearGradient id="r" x1="9.53" x2="61.36" xlink:href="#i" y1="-32.33" y2="43.42"/><linearGradient id="s" gradientUnits="userSpaceOnUse" x1="10.99" x2="76.77" y1="1.15" y2="54.97"><stop offset="0" stop-color="#ff298a"/><stop offset="1" stop-color="#ff7139"/></linearGradient><path d="m4.45 35.06a23.24 23.24 0 0 1 23.15-23.33l174.6-.5a23.25 23.25 0 1 1 .18 46.49l-174.59.5a23.25 23.25 0 0 1 -23.34-23.16z" fill="url(#a)"/><path d="m241.3 32.53a8 8 0 0 1 -7.92 7.95h-31.82a6.08 6.08 0 0 1 0-12.15 6.26 6.26 0 0 1 1.45.18 6.48 6.48 0 0 1 -.16-1.41 6.26 6.26 0 0 1 9.81-5.16 10.53 10.53 0 0 1 20.72 2.64 8 8 0 0 1 7.92 7.95z" fill="#cdcdd4" opacity=".15"/><path d="m140.9 48.57a9.25 9.25 0 0 0 -2.19.27 9.25 9.25 0 0 0 .24-2.12 9.45 9.45 0 0 0 -14.78-7.78 15.88 15.88 0 0 0 -31.24 4 11.93 11.93 0 1 0 0 23.85h48a9.11 9.11 0 1 0 0-18.21z" fill="#cdcdd4" opacity=".15"/><path d="m47.88 47v5.66l4.43-.02v-5.64z" fill="url(#b)"/><path d="m47.88 39.93h4.43v4.91h-4.43z" fill="url(#c)"/><path d="m39.67 52.21v5.68l4.43-.01v-5.67z" fill="url(#d)"/><path d="m39.67 39.93h4.43v4.91h-4.43z" fill="url(#e)"/><path d="m68.59 19.81a4.26 4.26 0 0 0 -1.26-3l-10.82-10.7a4.27 4.27 0 0 0 -3-1.23l-17.8.12a4.25 4.25 0 0 0 -4.23 4.26l.17 39.27a4.23 4.23 0 0 0 4.24 4.21v-18h3.78v3h4.43v-3h3.78v3h4.43v-3h3.78v10.1h4.43v-10.1h3.78v17.85h.18a4.24 4.24 0 0 0 4.22-4.27zm-30.16-10.35h10.57a1.08 1.08 0 0 1 0 2.16h-10.57a1.08 1.08 0 1 1 0-2.16zm0 7.07h10.57a1.09 1.09 0 0 1 0 2.17h-10.57a1.09 1.09 0 0 1 0-2.17zm0 7.08h10.57a1.08 1.08 0 1 1 0 2.16h-10.57a1.08 1.08 0 0 1 0-2.16zm19.69 9.24h-19.69a1.08 1.08 0 1 1 0-2.16h19.69a1.08 1.08 0 1 1 0 2.16zm3.64-7.08h-7.28a1.08 1.08 0 1 1 0-2.16h7.28a1.08 1.08 0 1 1 0 2.16z" fill="url(#f)"/><path d="m56.09 58.72v5.61l4.43-.02v-5.59z" fill="url(#g)"/><path d="m58.12 30.69h-19.69a1.08 1.08 0 1 0 0 2.16h19.69a1.08 1.08 0 1 0 0-2.16z" fill="url(#h)"/><path d="m58.12 30.69h-19.69a1.08 1.08 0 1 0 0 2.16h19.69a1.08 1.08 0 1 0 0-2.16z" fill="url(#i)"/><path d="m38.43 11.62h10.57a1.08 1.08 0 0 0 0-2.16h-10.57a1.08 1.08 0 1 0 0 2.16z" fill="url(#h)"/><path d="m38.43 11.62h10.57a1.08 1.08 0 0 0 0-2.16h-10.57a1.08 1.08 0 1 0 0 2.16z" fill="url(#j)"/><path d="m39.67 44.84h4.43v2.16h-4.43z" fill="url(#h)"/><path d="m39.67 44.84h4.43v2.16h-4.43z" fill="url(#k)"/><path d="m47.88 44.84h4.43v2.16h-4.43z" fill="url(#h)"/><path d="m47.88 44.84h4.43v2.16h-4.43z" fill="url(#l)"/><path d="m56.09 44.84h4.43v2.16h-4.43z" fill="url(#h)"/><path d="m56.09 44.84h4.43v2.16h-4.43z" fill="url(#m)"/><path d="m61.76 23.61h-7.28a1.08 1.08 0 1 0 0 2.16h7.28a1.08 1.08 0 1 0 0-2.16z" fill="url(#h)"/><path d="m61.76 23.61h-7.28a1.08 1.08 0 1 0 0 2.16h7.28a1.08 1.08 0 1 0 0-2.16z" fill="url(#n)"/><path d="m39.67 37.76h4.43v2.16h-4.43z" fill="url(#h)"/><path d="m39.67 37.76h4.43v2.16h-4.43z" fill="url(#o)"/><path d="m47.88 37.76h4.43v2.16h-4.43z" fill="url(#h)"/><path d="m47.88 37.76h4.43v2.16h-4.43z" fill="url(#p)"/><path d="m38.43 25.77h10.57a1.08 1.08 0 1 0 0-2.16h-10.57a1.08 1.08 0 0 0 0 2.16z" fill="url(#h)"/><path d="m38.43 25.77h10.57a1.08 1.08 0 1 0 0-2.16h-10.57a1.08 1.08 0 0 0 0 2.16z" fill="url(#q)"/><path d="m38.43 18.7h10.57a1.09 1.09 0 0 0 0-2.17h-10.57a1.09 1.09 0 0 0 0 2.17z" fill="url(#h)"/><path d="m38.43 18.7h10.57a1.09 1.09 0 0 0 0-2.17h-10.57a1.09 1.09 0 0 0 0 2.17z" fill="url(#r)"/><path d="m76.12 35.39h-51.93a2.33 2.33 0 0 1 -2.34-1.87 2.25 2.25 0 0 1 2.22-2.63h51.93a2.37 2.37 0 0 1 2.4 1.92 2.25 2.25 0 0 1 -2.28 2.58z" fill="url(#s)"/></svg>

<svg id="Layer_1" data-name="Layer 1" xmlns="http://www.w3.org/2000/svg" xmlns:xlink="http://www.w3.org/1999/xlink" viewBox="0 0 256 70"><defs><style>.cls-1{fill:url(#radial-gradient);}.cls-2{fill:#cdcdd4;opacity:0.15;}.cls-3{fill:url(#linear-gradient);}.cls-4{fill:url(#linear-gradient-2);}.cls-5{fill:url(#linear-gradient-3);}.cls-6{fill:url(#linear-gradient-4);}.cls-7{fill:url(#linear-gradient-5);}.cls-8{fill:url(#linear-gradient-6);}.cls-9{fill:url(#radial-gradient-2);}.cls-10{fill:url(#linear-gradient-7);}.cls-11{fill:url(#linear-gradient-8);}.cls-12{fill:url(#linear-gradient-9);}.cls-13{fill:url(#linear-gradient-10);}.cls-14{fill:url(#linear-gradient-11);}.cls-15{fill:url(#linear-gradient-12);}.cls-16{fill:url(#linear-gradient-13);}.cls-17{fill:url(#linear-gradient-14);}.cls-18{fill:url(#linear-gradient-15);}.cls-19{fill:url(#linear-gradient-16);}.cls-20{fill:url(#linear-gradient-17);}</style><radialGradient id="radial-gradient" cx="143.54" cy="81.07" r="146.71" gradientTransform="translate(0 24.46) scale(1 0.7)" gradientUnits="userSpaceOnUse"><stop offset="0.08" stop-color="#cdcdd4" stop-opacity="0"/><stop offset="0.36" stop-color="#cdcdd4" stop-opacity="0.02"/><stop offset="0.65" stop-color="#cdcdd4" stop-opacity="0.08"/><stop offset="0.94" stop-color="#cdcdd4" stop-opacity="0.18"/><stop offset="1" stop-color="#cdcdd4" stop-opacity="0.2"/></radialGradient><linearGradient id="linear-gradient" x1="15.02" y1="84.89" x2="70.79" y2="29.12" gradientUnits="userSpaceOnUse"><stop offset="0" stop-color="#ffd567"/><stop offset="1" stop-color="#fff361"/></linearGradient><linearGradient id="linear-gradient-2" x1="18.75" y1="73.73" x2="74.52" y2="17.96" xlink:href="#linear-gradient"/><linearGradient id="linear-gradient-3" x1="0.09" y1="96.83" x2="55.86" y2="41.06" xlink:href="#linear-gradient"/><linearGradient id="linear-gradient-4" x1="6.43" y1="77.84" x2="62.2" y2="22.07" xlink:href="#linear-gradient"/><linearGradient id="linear-gradient-5" x1="20.2" y1="58.66" x2="75.97" y2="2.89" xlink:href="#linear-gradient"/><linearGradient id="linear-gradient-6" x1="21.49" y1="98.33" x2="77.26" y2="42.56" xlink:href="#linear-gradient"/><radialGradient id="radial-gradient-2" cx="15.16" cy="-31.08" r="110.94" gradientUnits="userSpaceOnUse"><stop offset="0.35" stop-color="#ffea80"/><stop offset="1" stop-color="#ffbd4f"/></radialGradient><linearGradient id="linear-gradient-7" x1="6.05" y1="-29.94" x2="57.88" y2="45.81" gradientUnits="userSpaceOnUse"><stop offset="0.35" stop-color="#ffd567"/><stop offset="0.9" stop-color="#ffa436"/></linearGradient><linearGradient id="linear-gradient-8" x1="12.83" y1="-34.59" x2="64.66" y2="41.16" xlink:href="#linear-gradient-7"/><linearGradient id="linear-gradient-9" x1="-4.9" y1="-22.45" x2="46.93" y2="53.3" xlink:href="#linear-gradient-7"/><linearGradient id="linear-gradient-10" x1="0.69" y1="-26.28" x2="52.52" y2="49.47" xlink:href="#linear-gradient-7"/><linearGradient id="linear-gradient-11" x1="6.28" y1="-30.11" x2="58.11" y2="45.64" xlink:href="#linear-gradient-7"/><linearGradient id="linear-gradient-12" x1="16.05" y1="-36.79" x2="67.88" y2="38.96" xlink:href="#linear-gradient-7"/><linearGradient id="linear-gradient-13" x1="-1.6" y1="-24.71" x2="50.23" y2="51.04" xlink:href="#linear-gradient-7"/><linearGradient id="linear-gradient-14" x1="3.99" y1="-28.54" x2="55.82" y2="47.21" xlink:href="#linear-gradient-7"/><linearGradient id="linear-gradient-15" x1="6.24" y1="-30.07" x2="58.07" y2="45.68" xlink:href="#linear-gradient-7"/><linearGradient id="linear-gradient-16" x1="9.53" y1="-32.33" x2="61.36" y2="43.42" xlink:href="#linear-gradient-7"/><linearGradient id="linear-gradient-17" x1="10.99" y1="1.15" x2="76.77" y2="54.97" gradientUnits="userSpaceOnUse"><stop offset="0" stop-color="#ff298a"/><stop offset="1" stop-color="#ff7139"/></linearGradient></defs><title>fx-fenix_error_13</title><path class="cls-1" d="M4.45,35.06A23.24,23.24,0,0,1,27.6,11.73l174.6-.5a23.25,23.25,0,1,1,.18,46.49l-174.59.5A23.25,23.25,0,0,1,4.45,35.06Z"/><path class="cls-2" d="M241.3,32.53a8,8,0,0,1-7.92,7.95H201.56a6.08,6.08,0,0,1,0-12.15,6.26,6.26,0,0,1,1.45.18,6.48,6.48,0,0,1-.16-1.41,6.26,6.26,0,0,1,9.81-5.16,10.53,10.53,0,0,1,20.72,2.64A8,8,0,0,1,241.3,32.53Z"/><path class="cls-2" d="M140.9,48.57a9.25,9.25,0,0,0-2.19.27,9.25,9.25,0,0,0,.24-2.12,9.45,9.45,0,0,0-14.78-7.78,15.88,15.88,0,0,0-31.24,4,11.93,11.93,0,1,0,0,23.85h48a9.11,9.11,0,1,0,0-18.21Z"/><polygon class="cls-3" points="47.88 47 47.88 52.66 52.31 52.64 52.31 47 47.88 47"/><rect class="cls-4" x="47.88" y="39.93" width="4.43" height="4.91"/><polygon class="cls-5" points="39.67 52.21 39.67 57.89 44.1 57.88 44.1 52.21 39.67 52.21"/><rect class="cls-6" x="39.67" y="39.93" width="4.43" height="4.91"/><path class="cls-7" d="M68.59,19.81a4.26,4.26,0,0,0-1.26-3L56.51,6.11a4.27,4.27,0,0,0-3-1.23L35.71,5a4.25,4.25,0,0,0-4.23,4.26l.17,39.27a4.23,4.23,0,0,0,4.24,4.21v-18h3.78v3H44.1v-3h3.78v3h4.43v-3h3.78v10.1h4.43V34.74H64.3V52.59h.18a4.24,4.24,0,0,0,4.22-4.27ZM38.43,9.46H49a1.08,1.08,0,0,1,0,2.16H38.43a1.08,1.08,0,1,1,0-2.16Zm0,7.07H49a1.09,1.09,0,0,1,0,2.17H38.43a1.09,1.09,0,0,1,0-2.17Zm0,7.08H49a1.08,1.08,0,1,1,0,2.16H38.43a1.08,1.08,0,0,1,0-2.16Zm19.69,9.24H38.43a1.08,1.08,0,1,1,0-2.16H58.12a1.08,1.08,0,1,1,0,2.16Zm3.64-7.08H54.48a1.08,1.08,0,1,1,0-2.16h7.28a1.08,1.08,0,1,1,0,2.16Z"/><polygon class="cls-8" points="56.09 58.72 56.09 64.33 60.52 64.31 60.52 58.72 56.09 58.72"/><path class="cls-9" d="M58.12,30.69H38.43a1.08,1.08,0,1,0,0,2.16H58.12a1.08,1.08,0,1,0,0-2.16Z"/><path class="cls-10" d="M58.12,30.69H38.43a1.08,1.08,0,1,0,0,2.16H58.12a1.08,1.08,0,1,0,0-2.16Z"/><path class="cls-9" d="M38.43,11.62H49a1.08,1.08,0,0,0,0-2.16H38.43a1.08,1.08,0,1,0,0,2.16Z"/><path class="cls-11" d="M38.43,11.62H49a1.08,1.08,0,0,0,0-2.16H38.43a1.08,1.08,0,1,0,0,2.16Z"/><rect class="cls-9" x="39.67" y="44.84" width="4.43" height="2.16"/><rect class="cls-12" x="39.67" y="44.84" width="4.43" height="2.16"/><rect class="cls-9" x="47.88" y="44.84" width="4.43" height="2.16"/><rect class="cls-13" x="47.88" y="44.84" width="4.43" height="2.16"/><rect class="cls-9" x="56.09" y="44.84" width="4.43" height="2.16"/><rect class="cls-14" x="56.09" y="44.84" width="4.43" height="2.16"/><path class="cls-9" d="M61.76,23.61H54.48a1.08,1.08,0,1,0,0,2.16h7.28a1.08,1.08,0,1,0,0-2.16Z"/><path class="cls-15" d="M61.76,23.61H54.48a1.08,1.08,0,1,0,0,2.16h7.28a1.08,1.08,0,1,0,0-2.16Z"/><rect class="cls-9" x="39.67" y="37.76" width="4.43" height="2.16"/><rect class="cls-16" x="39.67" y="37.76" width="4.43" height="2.16"/><rect class="cls-9" x="47.88" y="37.76" width="4.43" height="2.16"/><rect class="cls-17" x="47.88" y="37.76" width="4.43" height="2.16"/><path class="cls-9" d="M38.43,25.77H49a1.08,1.08,0,1,0,0-2.16H38.43a1.08,1.08,0,0,0,0,2.16Z"/><path class="cls-18" d="M38.43,25.77H49a1.08,1.08,0,1,0,0-2.16H38.43a1.08,1.08,0,0,0,0,2.16Z"/><path class="cls-9" d="M38.43,18.7H49a1.09,1.09,0,0,0,0-2.17H38.43a1.09,1.09,0,0,0,0,2.17Z"/><path class="cls-19" d="M38.43,18.7H49a1.09,1.09,0,0,0,0-2.17H38.43a1.09,1.09,0,0,0,0,2.17Z"/><path class="cls-20" d="M76.12,35.39H24.19a2.33,2.33,0,0,1-2.34-1.87,2.25,2.25,0,0,1,2.22-2.63H76a2.37,2.37,0,0,1,2.4,1.92A2.25,2.25,0,0,1,76.12,35.39Z"/></svg>
